src/assets/filled/EmojiHappy.svg

<?xml version="1.0" encoding="UTF-8"?>
<svg width="24" height="24" viewBox="0 0 24 24" xmlns="http://www.w3.org/2000/svg">
 <path d="m16.19 2h-8.38c-3.64 0-5.81 2.17-5.81 5.81v8.37c0 3.65 2.17 5.82 5.81 5.82h8.37c3.64 0 5.81-2.17 5.81-5.81v-8.38c0.01-3.64-2.16-5.81-5.8-5.81zm-7.69 4.38c1.03 0 1.88 0.84 1.88 1.88s-0.84 1.88-1.88 1.88-1.88-0.86-1.88-1.89 0.85-1.87 1.88-1.87zm3.5 12.7c-2.69 0-4.88-2.19-4.88-4.88 0-0.7 0.57-1.28 1.27-1.28h7.2c0.7 0 1.27 0.57 1.27 1.28 0.02 2.69-2.17 4.88-4.86 4.88zm3.5-8.96c-1.03 0-1.88-0.84-1.88-1.88s0.84-1.88 1.88-1.88 1.88 0.84 1.88 1.88-0.85 1.88-1.88 1.88z"/>
</svg>

<svg width="24" height="24" viewBox="0 0 24 24"  xmlns="http://www.w3.org/2000/svg">
<path d="M16.19 2H7.81C4.17 2 2 4.17 2 7.81V16.18C2 19.83 4.17 22 7.81 22H16.18C19.82 22 21.99 19.83 21.99 16.19V7.81C22 4.17 19.83 2 16.19 2ZM8.5 6.38C9.53 6.38 10.38 7.22 10.38 8.26C10.38 9.3 9.54 10.14 8.5 10.14C7.46 10.14 6.62 9.28 6.62 8.25C6.62 7.22 7.47 6.38 8.5 6.38ZM12 19.08C9.31 19.08 7.12 16.89 7.12 14.2C7.12 13.5 7.69 12.92 8.39 12.92H15.59C16.29 12.92 16.86 13.49 16.86 14.2C16.88 16.89 14.69 19.08 12 19.08ZM15.5 10.12C14.47 10.12 13.62 9.28 13.62 8.24C13.62 7.2 14.46 6.36 15.5 6.36C16.54 6.36 17.38 7.2 17.38 8.24C17.38 9.28 16.53 10.12 15.5 10.12Z" />
</svg>
